_inc/systems/logos/amiga4000.svg

<?xml version="1.0" encoding="utf-8"?>
<svg viewBox="3.713 0.585 823.8297 352.7314" width="823.8297" height="352.7314" xmlns="http://www.w3.org/2000/svg">
  <path d="M 328.7 124.26 C 331.39 159.95 332.44 195.82 335.45 231.5 C 335.98 237.76 337.5 241.72 343.71 243.25 L 345.79 245.5 L 345.62 248.86 C 345.6 249.247 345.41 249.513 345.05 249.66 C 343.903 250.107 342.47 250.35 340.75 250.39 C 319.71 250.883 302.96 251.017 290.5 250.79 C 285.59 248.36 288.83 244.1 292.75 243.53 C 302.18 242.15 304.93 240.57 305 230 C 305.02 227.193 304.757 222.61 304.21 216.25 C 304.363 213.81 304.053 211.383 303.28 208.97 C 303.173 208.63 302.94 208.457 302.58 208.45 C 292.087 208.183 281.587 208.14 271.08 208.32 C 267.21 208.39 266.2 208.03 264.21 211.19 C 258.577 220.143 254.933 226.253 253.28 229.52 C 251.59 232.86 249.7 237.25 253.43 239.57 C 255.937 241.137 257.96 241.997 259.5 242.15 C 263.087 242.83 265.837 244.21 267.75 246.29 C 267.28 249.18 265.79 250.79 262.68 250.88 C 257.14 251.04 251.17 250.46 246.11 250.55 C 236.823 250.73 227.537 250.843 218.25 250.89 C 215.08 245.18 217.93 243.73 223.16 242.89 C 232 241.46 237 234.33 242.4 226.6 C 265.887 192.947 289.387 159.303 312.9 125.67 C 317.433 119.177 322.7 118.707 328.7 124.26 L 328.7 124.26 Z M 285.96 198.5 C 291.4 199.087 296.847 199.217 302.3 198.89 C 302.653 198.87 302.84 198.683 302.86 198.33 C 303.327 190.583 302.973 182.77 301.8 174.89 L 300.95 157.07 C 300.923 156.51 300.753 156.463 300.44 156.93 L 272.74 198 C 272.5 198.36 272.593 198.557 273.02 198.59 C 277.373 198.957 281.687 198.927 285.96 198.5 L 285.96 198.5 Z" id="path150" style="fill: rgb(255, 255, 255);"/>
  <path d="M 805.93 123.26 C 807.97 146.09 808.86 170.54 810.7 194.53 C 811.64 206.69 811.93 221.37 813.34 234.42 C 813.84 239.1 816.393 241.78 821 242.46 C 823.41 244.01 825.66 243.45 827.54 246.25 C 827.613 249.077 826.187 250.483 823.26 250.47 C 812.687 250.423 795.43 250.633 771.49 251.1 C 770.23 251.13 769.12 250.77 767.79 250.75 C 766.87 249.863 766.277 248.803 766.01 247.57 C 765.937 247.23 765.983 246.907 766.15 246.6 C 769.83 239.8 780.63 247.05 782.18 235.15 C 783.007 228.87 782.85 222.57 781.71 216.25 C 781.917 213.71 781.763 211.187 781.25 208.68 C 781.183 208.367 780.99 208.21 780.67 208.21 L 744.38 208.34 C 744.053 208.34 743.797 208.473 743.61 208.74 C 738.11 216.327 733.433 224.383 729.58 232.91 C 727.16 238.27 732.86 241.58 737.21 242 C 740.27 243.09 742.69 243.26 745.04 245.75 C 745.85 252.07 737.23 251.06 732.41 250.82 C 721.77 250.28 711.15 250.56 700.5 250.84 C 700.167 250.847 699.87 250.743 699.61 250.53 C 699.243 250.23 698.943 250.213 698.71 250.48 C 698.357 250.88 698.043 250.853 697.77 250.4 C 693.43 243.27 703.42 242.31 707.32 241.16 C 710.52 238.847 713.573 235.617 716.48 231.47 C 740.46 197.283 764.41 163.08 788.33 128.86 C 792.59 122.77 798.2 116.98 805.93 123.26 L 805.93 123.26 Z M 763.93 198.52 C 769.523 199.093 774.913 199.217 780.1 198.89 C 780.773 198.85 781.087 198.497 781.04 197.83 L 779.54 175.1 L 778.84 157.13 C 778.82 156.71 778.667 156.65 778.38 156.95 C 777.827 157.523 777.18 158.357 776.44 159.45 C 767.813 172.19 759.223 184.99 750.67 197.85 C 750.43 198.21 750.527 198.413 750.96 198.46 C 755.353 198.913 759.677 198.933 763.93 198.52 L 763.93 198.52 Z" id="path152" style="fill: rgb(255, 255, 255);"/>
  <path d="M 725.04 127.75 C 723.287 135.63 720.793 143.65 717.56 151.81 C 716.333 154.903 714.147 156.813 711 157.54 C 704.79 150.88 709.51 145.69 707.25 138.46 C 708.37 133.63 702.42 130.59 698.48 130.85 C 664.68 133.11 634.59 155.92 625.02 188.78 C 620.05 205.84 620.58 227.91 636.04 239.71 C 642.67 244.87 648.39 245.91 657.26 245.67 C 661.173 245.563 663.63 243.87 664.63 240.59 C 667.497 231.19 670.2 221.743 672.74 212.25 C 673.02 211.21 673.053 210.203 672.84 209.23 C 673.393 205.75 671.853 203.533 668.22 202.58 C 665.42 201.84 663.09 201.563 661.23 201.75 C 659.09 200.177 658.377 198.09 659.09 195.49 C 659.183 195.163 659.39 194.95 659.71 194.85 C 660.6 194.57 661.86 194.2 662.79 194.19 C 681.837 193.943 700.883 193.923 719.93 194.13 C 721.943 194.157 723.563 194.947 724.79 196.5 C 720.67 205.91 710.24 197.54 705.88 210.27 C 703.6 216.93 701.57 223.687 699.79 230.54 C 698.99 233.6 697.987 235.92 696.78 237.5 C 689.39 247.21 672.31 251.96 661.48 253.12 C 646.32 254.75 624.15 253.55 611.64 243.56 C 611.4 243.373 611.157 243.363 610.91 243.53 L 610.5 243.79 C 597.13 232.66 587.7 220.85 588.36 202.34 C 589.37 174.34 609.29 153.35 632.68 140.67 C 660.02 125.84 690.71 119.55 721.5 125.15 C 722.493 125.33 723.673 126.197 725.04 127.75 L 725.04 127.75 Z" id="path154" style="fill: rgb(255, 255, 255);"/>
  <path d="M 533.04 127.75 C 531.76 137.58 518.84 129.69 515.9 141.68 C 509.753 166.693 503.727 191.737 497.82 216.81 C 496.17 223.81 494.63 230.15 494.76 237.4 C 494.767 237.733 494.873 238.033 495.08 238.3 C 496.86 240.587 499.237 241.653 502.21 241.5 L 508.04 245.5 C 507.28 251.04 502.12 250.96 498.06 250.68 C 477.24 249.21 462.75 250.01 446.25 250.69 C 444.137 249.203 443.387 247.197 444 244.67 C 444.08 244.35 444.257 244.097 444.53 243.91 C 448 241.54 453.99 241.91 458.24 240.06 C 458.567 239.92 458.82 239.7 459 239.4 C 460.52 236.88 461.747 233.893 462.68 230.44 C 466.58 216.013 470.283 201.537 473.79 187.01 C 474.017 186.07 474.043 185.047 473.87 183.94 C 476.923 173.8 479.49 163.997 481.57 154.53 C 481.91 153.003 481.647 152.89 480.78 154.19 C 460.74 184.337 440.567 214.35 420.26 244.23 C 417.453 248.357 413.617 250.043 408.75 249.29 C 406.937 247.997 405.98 246.213 405.88 243.94 C 404.673 215.113 404.017 196.467 403.91 188 C 403.863 184.313 403.603 181.593 403.13 179.84 L 402.12 154.14 C 402.067 152.847 401.817 152.807 401.37 154.02 C 395.697 169.32 389.997 184.98 384.27 201 C 381.77 207.97 373 232.04 377.28 238.08 C 378.76 240.18 380.987 240.987 383.96 240.5 C 383.573 241.46 383.837 241.96 384.75 242 C 388.05 242.153 390.73 242.987 392.79 244.5 L 392.8 247.81 C 392.807 248.157 392.703 248.467 392.49 248.74 C 391.47 250.073 390.053 250.697 388.24 250.61 C 376.373 249.997 365.443 249.877 355.45 250.25 C 355.123 250.263 354.807 250.323 354.5 250.43 L 353.5 250.79 C 351.81 249.66 347.78 245.8 351.27 243.99 C 355.71 241.67 359.04 240.73 361.39 236.33 C 363.717 231.97 365.42 228.277 366.5 225.25 C 374.313 203.37 382.077 181.473 389.79 159.56 C 393.057 150.287 395.113 143.933 395.96 140.5 C 397.073 138.053 396.647 136.15 394.68 134.79 C 392.253 133.103 389.107 132.407 385.24 132.7 C 381.12 129.43 380.67 125.03 387.04 125.01 C 400.933 124.99 414.837 124.99 428.75 125.01 C 430.41 125.017 431.59 125.68 432.29 127 L 435.25 205.43 C 435.263 205.757 435.38 205.797 435.6 205.55 C 438.7 202.017 440.973 198.283 442.42 194.35 C 443.813 193.657 444.713 192.99 445.12 192.35 C 467.187 157.663 481.25 135.897 487.31 127.05 C 488.74 124.97 524.72 124.93 529.7 124.89 C 530.053 124.883 530.357 125.007 530.61 125.26 L 533.04 127.75 Z" id="path156" style="fill: rgb(255, 255, 255);"/>
  <path d="M 608.79 127.25 C 607.88 135.25 596.16 131.54 592.52 137.04 C 591.133 139.127 589.827 142.35 588.6 146.71 C 581.027 173.503 573.493 200.307 566 227.12 C 564.24 233.4 561.93 242.46 572.25 242.21 C 574.777 242.917 577.04 244.097 579.04 245.75 C 578.593 247.517 577.713 248.98 576.4 250.14 C 576.133 250.367 575.827 250.483 575.48 250.49 C 555.24 250.73 534.997 250.843 514.75 250.83 C 513.697 250.83 512.773 250.093 511.98 248.62 C 511.9 248.473 511.92 248.343 512.04 248.23 L 512.25 248.04 L 514.74 244.63 C 514.953 244.337 515.24 244.163 515.6 244.11 C 520.88 243.29 524.667 242.33 526.96 241.23 C 529.97 239.79 530.6 236.87 531.73 233 C 540.243 203.76 548.64 174.487 556.92 145.18 C 557.093 144.547 557.19 143.32 557.21 141.5 C 560.34 134.87 552.36 134.36 548.4 133.69 C 548.187 133.657 547.99 133.703 547.81 133.83 L 547.5 134.04 C 545.4 132.313 544.98 130.337 546.24 128.11 C 546.407 127.81 546.653 127.617 546.98 127.53 C 548.76 127.063 550.037 126.82 550.81 126.8 C 569.043 126.26 587.273 125.647 605.5 124.96 C 606.62 124.92 607.717 125.683 608.79 127.25 L 608.79 127.25 Z" id="path158" style="fill: rgb(255, 255, 255);"/>
  <path d="M 673.85 276.81 C 676.137 282.143 677.737 287.06 678.65 291.56 C 682.93 312.53 681.28 355.8 648.49 353.03 C 645.957 352.817 643.32 351.823 640.58 350.05 C 639.98 349.66 639.46 349.72 638.79 349.75 C 633.01 343.85 629.337 337.02 627.77 329.26 C 624.32 312.2 624.11 277.99 643.43 269.22 C 654.85 264.02 665.59 267.7 673.85 276.81 L 673.85 276.81 Z M 647.21 343.75 C 647.65 344.25 647.973 344.533 648.18 344.6 C 658.23 347.86 665.92 340.6 668.18 331.68 C 671.967 316.687 671.837 301.627 667.79 286.5 C 667.43 285.16 666.5 283.813 665 282.46 L 665.12 281.67 C 665.173 281.343 665.087 281.057 664.86 280.81 C 652.21 267.27 639.65 278.49 637.06 292.32 C 634.39 306.53 632.93 331.69 645.3 343.19 C 645.58 343.45 646.217 343.637 647.21 343.75 L 647.21 343.75 Z" id="path166" style="fill: rgb(255, 255, 255);"/>
  <path d="M 737.99 276.51 C 740.69 282.337 742.417 287.267 743.17 291.3 C 746.18 307.39 746.5 340.73 728.15 350.39 C 721.69 353.8 713.71 354.24 706.74 350.93 C 705.7 350.443 704.623 350.05 703.51 349.75 C 697.39 343.797 693.633 337.133 692.24 329.76 C 688.64 310.75 688.05 266.8 718.15 266.99 C 725.883 267.043 732.497 270.217 737.99 276.51 Z M 711.75 343.46 C 713.03 344.573 714.207 345.167 715.28 345.24 C 739.56 347 735.88 304.77 733.49 291.26 C 732.923 288.087 731.743 285.19 729.95 282.57 C 727.71 278.023 724.313 275.423 719.76 274.77 C 700.76 272.05 699.89 301.53 700.15 312.92 C 700.35 321.54 701.3 341.09 711.75 343.46 L 711.75 343.46 Z" id="path168" style="fill: rgb(255, 255, 255);"/>
  <path d="M 802.04 276.14 C 804.787 281.82 806.633 286.92 807.58 291.44 C 811.39 309.66 810.76 346.14 786.78 352.55 C 780.753 354.163 774.833 353.23 769.02 349.75 C 768.813 349.623 768.59 349.59 768.35 349.65 L 767.75 349.79 C 760.09 341.71 755.91 332.047 755.21 320.8 C 754.05 302.23 754.65 270.53 779.45 267.18 C 788.76 265.93 795.46 269.51 802.04 276.14 L 802.04 276.14 Z M 775.71 343.25 C 779.31 347.32 787.53 345.18 790.6 342.32 C 800.9 332.75 800.01 312 798.94 298.91 C 798.62 295.11 797.66 289.03 796.3 286.24 C 795.687 284.993 795.01 283.593 794.27 282.04 C 790.463 276.167 785.507 273.88 779.4 275.18 C 762.76 278.72 763.5 308.97 764.77 321.11 C 765.37 326.88 768.4 341.99 775.71 343.25 L 775.71 343.25 Z" id="path170" style="fill: rgb(255, 255, 255);"/>
  <path d="M 606.04 274 L 605.99 322.33 C 605.99 322.697 606.17 322.92 606.53 323 C 608.63 323.453 610.5 323.44 612.14 322.96 C 613.46 322.98 614.493 323.207 615.24 323.64 C 615.54 323.813 615.717 324.077 615.77 324.43 L 616.5 329.04 C 616.68 329.727 616.66 330.38 616.44 331 C 616.293 331.4 616.01 331.603 615.59 331.61 L 606.5 331.8 C 606.167 331.807 606 331.977 606 332.31 L 606 351.03 C 606 351.45 605.79 351.673 605.37 351.7 L 601.45 351.97 L 597.76 351.98 C 597.387 351.98 597.19 351.797 597.17 351.43 L 596.48 338.23 C 596.813 336.543 596.753 334.637 596.3 332.51 C 596.213 332.097 595.963 331.89 595.55 331.89 L 563.85 331.72 C 563.577 331.713 563.32 331.783 563.08 331.93 L 562.54 332.25 C 560.39 331.42 557.4 333.04 556.95 329.53 C 556.52 326.14 557.12 323.74 559.52 321.08 C 573.853 305.14 585.957 287.65 595.83 268.61 C 596.023 268.243 596.327 268.06 596.74 268.06 L 604.43 268.06 C 605.203 268.06 605.62 268.443 605.68 269.21 L 606.04 274 Z M 569 322.21 C 569.03 323.69 578.88 322.85 580.25 322.71 C 585.237 323.143 590.297 323.2 595.43 322.88 C 595.75 322.86 595.93 322.69 595.97 322.37 C 596.883 315.177 597.013 307.92 596.36 300.6 C 596.86 295.32 596.73 290.02 595.97 284.7 L 595.98 283.19 C 595.983 283.005 595.785 282.887 595.623 282.976 C 595.584 282.998 595.552 283.031 595.53 283.07 C 588.03 296.243 579.433 308.66 569.74 320.32 C 569.533 320.567 569.383 320.85 569.29 321.17 L 569 322.21 Z" id="path172" style="fill: rgb(255, 255, 255);"/>
  <path style="fill: rgb(255, 255, 255);" d="M 192.868 248.888 L 146.857 248.888 L 59.097 117.204 L 105.532 117.204 L 192.868 248.888 Z" id="path52-1"/>
  <path style="fill: rgb(255, 255, 255);" d="M 193.348 248.888 L 149.468 248.888 L 311.359 0.587 L 357.37 0.587 L 193.348 248.888 Z" id="path77-3"/>
  <path style="fill: rgb(255, 255, 255);" d="M 137.486 248.886 L 91.475 248.886 L 3.713 117.204 L 50.151 117.204 L 137.486 248.886 Z" id="path96-0"/>
  <path style="fill: rgb(255, 255, 255);" d="M 137.966 248.886 L 94.084 248.886 L 255.973 0.585 L 301.984 0.585 L 137.966 248.886 Z" id="path121-1"/>
</svg>

<svg xmlns="http://www.w3.org/2000/svg" viewBox="3.71 0.58 823.83 352.73"><path d="M328.7 124.26c2.69 35.69 3.74 71.56 6.75 107.24.53 6.26 2.05 10.22 8.26 11.75l2.08 2.25-.17 3.36a.85.85 0 0 1-.57.8q-1.72.67-4.3.73-31.56.75-50.25.4c-4.91-2.43-1.67-6.69 2.25-7.26 9.43-1.38 12.18-2.96 12.25-13.53q.03-4.2-.79-13.75.22-3.66-.93-7.28-.15-.5-.7-.52-15.75-.4-31.5-.13c-3.87.07-4.88-.29-6.87 2.87q-8.45 13.43-10.93 18.33c-1.69 3.34-3.58 7.73.15 10.05q3.75 2.36 6.07 2.58 5.38 1.02 8.25 4.14c-.47 2.89-1.96 4.5-5.07 4.59-5.54.16-11.51-.42-16.57-.33q-13.93.28-27.86.34c-3.17-5.71-.32-7.16 4.91-8 8.84-1.43 13.84-8.56 19.24-16.29q35.23-50.48 70.5-100.93 6.8-9.74 15.8-1.41m-42.74 74.24a98 98 0 0 0 16.34.39q.53-.03.56-.56.7-11.62-1.06-23.44l-.85-17.82q-.05-.84-.51-.14L272.74 198q-.36.54.28.59 6.53.55 12.94-.09m519.97-75.24c2.04 22.83 2.93 47.28 4.77 71.27.94 12.16 1.23 26.84 2.64 39.89q.75 7.02 7.66 8.04c2.41 1.55 4.66.99 6.54 3.79q.11 4.24-4.28 4.22-15.86-.08-51.77.63c-1.26.03-2.37-.33-3.7-.35a6 6 0 0 1-1.78-3.18q-.11-.5.14-.97c3.68-6.8 14.48.45 16.03-11.45q1.24-9.42-.47-18.9.3-3.8-.46-7.57-.1-.47-.58-.47l-36.29.13a.9.9 0 0 0-.77.4 138 138 0 0 0-14.03 24.17c-2.42 5.36 3.28 8.67 7.63 9.09 3.06 1.09 5.48 1.26 7.83 3.75.81 6.32-7.81 5.31-12.63 5.07-10.64-.54-21.26-.26-31.91.02q-.5 0-.89-.31-.55-.45-.9-.05-.53.6-.94-.08c-4.34-7.13 5.65-8.09 9.55-9.24q4.8-3.47 9.16-9.69 35.97-51.28 71.85-102.61c4.26-6.09 9.87-11.88 17.6-5.6m-42 75.26q8.4.86 16.17.37 1.01-.06.94-1.06l-1.5-22.73-.7-17.97q-.03-.63-.46-.18-.83.85-1.94 2.5a5556 5556 0 0 0-25.77 38.4q-.36.54.29.61 6.6.67 12.97.06m-38.89-70.77a159 159 0 0 1-7.48 24.06 8.9 8.9 0 0 1-6.56 5.73c-6.21-6.66-1.49-11.85-3.75-19.08 1.12-4.83-4.83-7.87-8.77-7.61-33.8 2.26-63.89 25.07-73.46 57.93-4.97 17.06-4.44 39.13 11.02 50.93 6.63 5.16 12.35 6.2 21.22 5.96q5.87-.16 7.37-5.08 4.3-14.1 8.11-28.34a6 6 0 0 0 .1-3.02q.82-5.22-4.62-6.65-4.2-1.11-6.99-.83-3.2-2.36-2.14-6.26.14-.5.62-.64a12 12 0 0 1 3.08-.66q28.58-.37 57.14-.06a6 6 0 0 1 4.86 2.37c-4.12 9.41-14.55 1.04-18.91 13.77a280 280 0 0 0-6.09 20.27q-1.2 4.59-3.01 6.96c-7.39 9.71-24.47 14.46-35.3 15.62-15.16 1.63-37.33.43-49.84-9.56q-.36-.28-.73-.03l-.41.26c-13.37-11.13-22.8-22.94-22.14-41.45 1.01-28 20.93-48.99 44.32-61.67 27.34-14.83 58.03-21.12 88.82-15.52q1.5.27 3.54 2.6m-192 0c-1.28 9.83-14.2 1.94-17.14 13.93a8046 8046 0 0 0-18.08 75.13c-1.65 7-3.19 13.34-3.06 20.59q0 .5.32.9a8 8 0 0 0 7.13 3.2l5.83 4c-.76 5.54-5.92 5.46-9.98 5.18-20.82-1.47-35.31-.67-51.81.01a5.3 5.3 0 0 1-2.25-6.02q.12-.48.53-.76c3.47-2.37 9.46-2 13.71-3.85q.5-.21.76-.66a35 35 0 0 0 3.68-8.96q5.85-21.64 11.11-43.43.34-1.4.08-3.07a400 400 0 0 0 7.7-29.41q.51-2.3-.79-.34a10588 10588 0 0 1-60.52 90.04q-4.2 6.19-11.51 5.06a6.6 6.6 0 0 1-2.87-5.35q-1.8-43.24-1.97-55.94-.07-5.53-.78-8.16l-1.01-25.7q-.07-1.94-.75-.12a4261 4261 0 0 0-17.1 46.98c-2.5 6.97-11.27 31.04-6.99 37.08q2.21 3.14 6.68 2.42-.58 1.44.79 1.5 4.95.23 8.04 2.5l.01 3.31q0 .52-.31.93a4.7 4.7 0 0 1-4.25 1.87q-17.8-.91-32.79-.36-.49.01-.95.18l-1 .36c-1.69-1.13-5.72-4.99-2.23-6.8 4.44-2.32 7.77-3.26 10.12-7.66a86 86 0 0 0 5.11-11.08q11.72-32.82 23.29-65.69 4.9-13.91 6.17-19.06 1.67-3.67-1.28-5.71-3.64-2.53-9.44-2.09c-4.12-3.27-4.57-7.67 1.8-7.69q20.85-.03 41.71 0 2.49 0 3.54 1.99l2.96 78.43q.02.5.35.12a36 36 0 0 0 6.82-11.2q2.1-1.05 2.7-2 33.1-52.03 42.19-65.3c1.43-2.08 37.41-2.12 42.39-2.16q.53 0 .91.37z" style="fill:#fff"/><path d="M608.79 127.25c-.91 8-12.63 4.29-16.27 9.79q-2.09 3.13-3.92 9.67-11.35 40.2-22.6 80.41c-1.76 6.28-4.07 15.34 6.25 15.09q3.8 1.06 6.79 3.54a8.5 8.5 0 0 1-2.64 4.39q-.4.34-.92.35-30.36.36-60.73.34-1.58 0-2.77-2.21-.12-.23.06-.39l.21-.19 2.49-3.41q.32-.45.86-.52 7.92-1.23 11.36-2.88c3.01-1.44 3.64-4.36 4.77-8.23a11476 11476 0 0 0 25.19-87.82q.26-.95.29-3.68c3.13-6.63-4.85-7.14-8.81-7.81a.8.8 0 0 0-.59.14l-.31.21q-3.15-2.59-1.26-5.93.25-.45.74-.58 2.67-.7 3.83-.73 27.35-.8 54.69-1.84 1.68-.06 3.29 2.29m65.06 149.56a76 76 0 0 1 4.8 14.75c4.28 20.97 2.63 64.24-30.16 61.47q-3.8-.31-7.91-2.98c-.6-.39-1.12-.33-1.79-.3a40 40 0 0 1-11.02-20.49c-3.45-17.06-3.66-51.27 15.66-60.04 11.42-5.2 22.16-1.52 30.42 7.59m-26.64 66.94q.66.75.97.85c10.05 3.26 17.74-4 20-12.92a88.3 88.3 0 0 0-.39-45.18q-.54-2.01-2.79-4.04l.12-.79a1 1 0 0 0-.26-.86c-12.65-13.54-25.21-2.32-27.8 11.51-2.67 14.21-4.13 39.37 8.24 50.87q.42.4 1.91.56m90.78-67.24q4.05 8.75 5.18 14.79c3.01 16.09 3.33 49.43-15.02 59.09a24 24 0 0 1-21.41.54 20 20 0 0 0-3.23-1.18q-9.18-8.93-11.27-19.99c-3.6-19.01-4.19-62.96 25.91-62.77q11.6.08 19.84 9.52m-26.24 66.95q1.92 1.66 3.53 1.78c24.28 1.76 20.6-40.47 18.21-53.98a22 22 0 0 0-3.54-8.69q-3.36-6.82-10.19-7.8c-19-2.72-19.87 26.76-19.61 38.15.2 8.62 1.15 28.17 11.6 30.54m90.29-67.32q4.13 8.52 5.54 15.3c3.81 18.22 3.18 54.7-20.8 61.11q-9.05 2.42-17.76-2.8a.8.8 0 0 0-.67-.1l-.6.14a45 45 0 0 1-12.54-28.99c-1.16-18.57-.56-50.27 24.24-53.62 9.31-1.25 16.01 2.33 22.59 8.96m-26.33 67.11c3.6 4.07 11.82 1.93 14.89-.93 10.3-9.57 9.41-30.32 8.34-43.41-.32-3.8-1.28-9.88-2.64-12.67l-2.03-4.2q-5.7-8.8-14.87-6.86c-16.64 3.54-15.9 33.79-14.63 45.93.6 5.77 3.63 20.88 10.94 22.14M606.04 274l-.05 48.33q0 .55.54.67 3.15.68 5.61-.04a6.4 6.4 0 0 1 3.1.68q.45.26.53.79l.73 4.61q.27 1.03-.06 1.96-.22.6-.85.61l-9.09.19q-.5 0-.5.51v18.72q0 .63-.63.67l-3.92.27-3.69.01q-.56 0-.59-.55l-.69-13.2q.5-2.54-.18-5.72-.14-.62-.75-.62l-31.7-.17q-.4 0-.77.21l-.54.32c-2.15-.83-5.14.79-5.59-2.72-.43-3.39.17-5.79 2.57-8.45a251 251 0 0 0 36.31-52.47q.3-.55.91-.55h7.69q1.16 0 1.25 1.15zM569 322.21c.03 1.48 9.88.64 11.25.5q7.48.65 15.18.17.48-.03.54-.51 1.37-10.8.39-21.77.75-7.92-.39-15.9l.01-1.51a.24.24 0 0 0-.45-.12 257 257 0 0 1-25.79 37.25q-.3.37-.45.85zm-376.13-73.32h-46.01L59.1 117.2h46.43z" style="fill:#fff"/><path d="M193.35 248.89h-43.88L311.36.59h46.01zm-55.86 0H91.47L3.71 117.2h46.44z" style="fill:#fff"/><path d="M137.97 248.89H94.08L255.98.59h46z" style="fill:#fff"/></svg>
